!!!COM: Salzilli, Crescenzio
!!!CDT:
!!!PTL: Il secondo libro de madrigali a cinque voci
!!!PPP: Naples
!!!PPR: Giovanni Giacomo Carlino
!!!PDT: 1611
!!!PUB-format:
!!!RISM: 1611-17
!!!rime: 325
!!!OTL:	O dolci lagrimette
!!!AGN: Madrigal
!!!SCT: Trm0325c
!!!SCA: Trm0325c
!!!original-voices: 5
!!!extant-voices: 5
!!!complete: Y
!!!final: A
**kern	**text	**kern	**text	**kern	**text	**kern	**text	**kern	**text
*part5	*part5	*part4	*part4	*part3	*part3	*part2	*part2	*part1	*part1
*staff5	*staff5	*staff4	*staff4	*staff3	*staff3	*staff2	*staff2	*staff1	*staff1
*I"Basso	*	*I"Quinto	*	*I"Tenore	*	*I"Alto	*	*I"Canto	*
*I'B	*	*I'V	*	*I'T	*	*I'A	*	*I'C	*
*oclefF3	*	*oclefC3	*	*oclefC3	*	*oclefC2	*	*oclefG2	*
*clefF4	*	*clefGv2	*	*clefGv2	*	*clefG2	*	*clefG2	*
*k[]	*	*k[]	*	*k[]	*	*k[]	*	*k[]	*
*omet(C)	*	*omet(C)	*	*omet(C)	*	*omet(C)	*	*omet(C)	*
*M4/2	*	*M4/2	*	*M4/2	*	*M4/2	*	*M4/2	*
=1	=1	=1	=1	=1	=1	=1	=1	=1	=1
2r	.	0r	.	2r	.	2r	.	1ff	O
2A	O	.	.	2a	O	2cc	O	.	.
2.c	dol-	.	.	2.g	dol-	2.cc	dol-	2.ee	dol-
4c	-ci	.	.	4g	-ci	4cc	-ci	4ee	-ci
=2	=2	=2	=2	=2	=2	=2	=2	=2	=2
2c	la-	0r	.	2g	la-	4cc	la-	2ee	la-
.	.	.	.	.	.	4g	-gri-	.	.
2F	-gri-	.	.	2d	-gri-	1a	-met-	2dd	-gri-
2E	-met-	.	.	2e	-met-	.	.	2b	-met-
2E	-te,	.	.	2e	-te,	2g#X	-te,	2b	-te,
=3	=3	=3	=3	=3	=3	=3	=3	=3	=3
2r	.	4B	Che	1r	.	4r	.	4r	.
.	.	4.e	già	.	.	4g#X	Che	4b	Che
4E	Che	.	.	.	.	4.cc	già	4.ee	già
.	.	8d	la	.	.	.	.	.	.
4.A	già	8c	Don-	.	.	.	.	.	.
.	.	8f	-na	.	.	8b	la	8dd	la
.	.	4f	mia	4r	.	8a	Don-	8cc	Don-
8G	la	.	.	.	.	8b	-na	8dd	-na
8F	Don-	2f	da	2d	da	4dd	mia	4ff	mia
8B-X	-na	.	.	.	.	.	.	.	.
2B-X	mia	.	.	.	.	2r	.	2r	.
.	.	8d	suoi	8B-X	suoi	.	.	.	.
.	.	8d	be-	8B-X	be-	.	.	.	.
=4	=4	=4	=4	=4	=4	=4	=4	=4	=4
2.G	da	2d	-gli oc-	2B-X	-gli oc-	2r	.	1r	.
.	.	2e	-chi,	2G	-chi,	4r	.	.	.
8E	suoi	.	.	.	.	2cc	da	.	.
8E	be-	.	.	.	.	.	.	.	.
1E	-gli oc-	1r	.	2r	.	.	.	4gg	da
.	.	.	.	.	.	8g	suoi	8cc#X	suoi
.	.	.	.	.	.	8g	be-	8cc#i	be-
.	.	.	.	4g	<da	[2g	-gli oc-	2cc#i	-gli oc-
.	.	.	.	8G	suoi	.	.	.	.
.	.	.	.	8G	be-	.	.	.	.
=5	=5	=5	=5	=5	=5	=5	=5	=5	=5
1D	-chi,	2r	.	2B	-gli oc-	2g]	.	1dd	-chi,
.	.	4r	.	2A	-chi,>	2f#X	-chi,	.	.
.	.	8A	Qua-	.	.	.	.	.	.
.	.	8A	-si	.	.	.	.	.	.
1r	.	4c	nem-	1r	.	8e	Qua-	1r	.
.	.	.	.	.	.	8e	-si	.	.
.	.	8B	-bo	.	.	4g	nem-	.	.
.	.	8G	che	.	.	.	.	.	.
.	.	8dL	fioc-	.	.	8fnXi	-bo	.	.
.	.	16c	.	.	.	8d	che	.	.
.	.	16B	.	.	.	.	.	.	.
.	.	8c	.	.	.	8aL	fioc-	.	.
.	.	8dJ	.	.	.	16g	.	.	.
.	.	.	.	.	.	16fJ	.	.	.
=6	=6	=6	=6	=6	=6	=6	=6	=6	=6
4r	.	4e	.	2r	.	8gL	.	8b	Qua-
.	.	.	.	.	.	8aJ	.	8b	-si
8D	Qua-	4d	-chi,	.	.	4b-X	.	4dd	nem-
8D	-si	.	.	.	.	.	.	.	.
4F	nembo	2r	.	8c	Qua-	1a	-chi,	8cc	-bo
.	.	.	.	8c	-si	.	.	8a	che
8C	che	.	.	4e	nem-	.	.	8eeL	fioc-
8AA	fioc-	.	.	.	.	.	.	16dd	.
.	.	.	.	.	.	.	.	16ccJ	.
4F	.	4r	.	8d	-bo	.	.	8ddL	.
.	.	.	.	8A	che	.	.	8eeJ	.
8EL	.	8A	<Qua-	8cL	fioc-	.	.	4ff	.
8DJ	.	8A	-si	16B	.	.	.	.	.
.	.	.	.	16AJ	.	.	.	.	.
4E	.	4c	nem-	4G	.	2r	.	16eeL	.
.	.	.	.	.	.	.	.	16dd	.
.	.	.	.	.	.	.	.	16cc	.
.	.	.	.	.	.	.	.	16bJ	.
4F	.	8d	-bo	4A	.	.	.	[4a	.
.	.	8c	che	.	.	.	.	.	.
=7	=7	=7	=7	=7	=7	=7	=7	=7	=7
2.G	.	8eL	fioc-	2.B-X	.	1r	.	4a]	.
.	.	16d	.	.	.	.	.	.	.
.	.	16c	.	.	.	.	.	.	.
.	.	8d	.	.	.	.	.	4g	-chi,
.	.	16e	.	.	.	.	.	.	.
.	.	16fJ	.	.	.	.	.	.	.
.	.	4g	.	.	.	.	.	2r	.
4D	-chi,	4f#X	-chi,>	4A	-chi,	.	.	.	.
1r	.	1r	.	1r	.	2r	.	8ddL	Spar-
.	.	.	.	.	.	.	.	16cc	.
.	.	.	.	.	.	.	.	16dd	.
.	.	.	.	.	.	.	.	8b	.
.	.	.	.	.	.	.	.	16cc	.
.	.	.	.	.	.	.	.	16ddJ	.
.	.	.	.	.	.	8gL	Spar-	4.ee	.
.	.	.	.	.	.	16f	.	.	.
.	.	.	.	.	.	16g	.	.	.
.	.	.	.	.	.	8e	.	.	.
.	.	.	.	.	.	16f	.	8dd	-se in
.	.	.	.	.	.	16gJ	.	.	.
=8	=8	=8	=8	=8	=8	=8	=8	=8	=8
2r	.	8cL	Spar-	1r	.	4.a	.	4cc	que-
.	.	16B	.	.	.	.	.	.	.
.	.	16c	.	.	.	.	.	.	.
.	.	8A	.	.	.	.	.	8cc	-sto o-
.	.	16B	.	.	.	8g	-se in	8b	-do-
.	.	16cJ	.	.	.	.	.	.	.
8FL	Spar-	4.d	.	.	.	4f	que-	4a	-ra-
16E	.	.	.	.	.	.	.	.	.
16F	.	.	.	.	.	.	.	.	.
8D	.	.	.	.	.	8f	-sto o-	4a	-to
16E	.	8c	-se in	.	.	8e	-do-	.	.
16FJ	.	.	.	.	.	.	.	.	.
4.G	.	4B	que-	8BL	Spar-	2d	-ra-	1r	.
.	.	.	.	16A	.	.	.	.	.
.	.	.	.	16B	.	.	.	.	.
.	.	8B	-sto o-	8G	.	.	.	.	.
8F	-se in	8A	-do-	16A	.	.	.	.	.
.	.	.	.	16BJ	.	.	.	.	.
4E	que-	4G	-ra-	[2c	.	2e	-to	.	.
8E	-sto o-	4g	-to e	.	.	.	.	.	.
8D	-do-	.	.	.	.	.	.	.	.
=9	=9	=9	=9	=9	=9	=9	=9	=9	=9
2.C	-ra-	8e	bian-	4c]	.	1r	.	1r	.
.	.	8e	-co	.	.	.	.	.	.
.	.	2f	li-	4B-X	-se in	.	.	.	.
.	.	.	.	4A	que-	.	.	.	.
4c	-to e	4e	-no!	8A	-sto o-	.	.	.	.
.	.	.	.	8G	-do-	.	.	.	.
4A	bian-	1r	.	4F	-ra-	4r	.	4ff	e
4A	-co	.	.	2f	-to e	4a	e	8cc#X	bian-
.	.	.	.	.	.	.	.	8cc#X	-co
[2B-X	li-	.	.	.	.	4f	bian-	[2dd	li-
.	.	.	.	8d	bian-	4f	-co	.	.
.	.	.	.	8d	-co	.	.	.	.
=10	=10	=10	=10	=10	=10	=10	=10	=10	=10
2B-]	.	1r	.	2e	li-	2g	li-	2dd]	.
2A	-no!	.	.	2e	-no!	2a	-no!	2cc#X	-no!
4r	.	4r	.	4r	.	4r	.	4r	.
2E	Mi-	2B	Mi-	2e	Mi-	2g#X	Mi-	2b	Mi-
4E	-se-	4B	-se-	4e	-se-	4g#X	-se-	4b	-se-
=11	=11	=11	=11	=11	=11	=11	=11	=11	=11
2E	-ro	2G#X	-ro	2e	-ro	2g#X	-ro	2b	-ro
4C#X	Pe-	4G#X	Pe-	4e#X	Pe-	4g#X	Pe-	4cc#X	Pe-
4C#X	-re-	4G#X	-re-	4e#X	-re-	4g#X	-re-	4cc#X	-re-
1C#X	-gri-	1c#X	-gri-	1e#X	-gri-	1g#X	-gri-	1cc#X	-gri-
=12	=12	=12	=12	=12	=12	=12	=12	=12	=12
1F#X	-no,	1c#X	-no,	1f#X	-no,	1a#X	-no,	1cc#X	-no,
2r	.	2r	.	2r	.	2r	.	4dd	Que-
.	.	.	.	.	.	.	.	4dd	-sto
4G	Que-	4B	Que-	4d	Que-	4g	Que-	[2dd	sol
4G	-sto	4B	-sto	4d	-sto	4g	-sto	.	.
=13	=13	=13	=13	=13	=13	=13	=13	=13	=13
2G	sol	2d	sol	2g	sol	2b	sol	2dd]	.
4G	me-	4g	me-	4d	me-	4b	me-	4dd	me-
4E	-co i'	4g	-co i'	4G	-co i'	4cc	-co i'	4ee	-co i'
2D#X	por-	2f#X	por-	2B	por-	2b	por-	2ff#X	por-
2E	-to e	2e	-to e	2B	-to e	2g#X	-to e	4b	-to e
.	.	.	.	.	.	.	.	[4ee	sol
=14	=14	=14	=14	=14	=14	=14	=14	=14	=14
2.A	sol	4e	sol	2c	sol	2.a	sol	4ee]	.
.	.	4e	i'	.	.	.	.	4cc	i'
.	.	1f	te-	2F	i'	.	.	1.cc	te-
4AA	i'	.	.	.	.	4a	i'	.	.
1C	te-	.	.	4G	te-	1g	te-	.	.
.	.	.	.	8AL	.	.	.	.	.
.	.	.	.	8BJ	.	.	.	.	.
.	.	2e	-gno,	2c	.	.	.	.	.
=15	=15	=15	=15	=15	=15	=15	=15	=15	=15
1F	-gno,	1r	.	1c	-gno,	1f	-gno,	1a	-gno,
2BB-X	Ca-	2f	Ca-	2d	Ca-	2b-X	Ca-	2ff	Ca-
4BB-X	-ro	4f	-ro	4d	-ro	4b-X	-ro	4ff	-ro
4BB-X	mio	4f	mio	4d	mio	4b-X	mio	4ff	mio
=16	=16	=16	=16	=16	=16	=16	=16	=16	=16
2BB-X	sì,	2f	sì,	2d	sì,	2b-X	sì,	2ff	sì,
8r	.	8r	.	8r	.	8r	.	8r	.
8G	ma	8d	ma	8d	ma	8g	ma	8b	ma
8G	non	8d	non	8g	non	8g	non	8b	non
8G	fe-	8d	fe-	8G	fe-	8g	fe-	8b	fe-
4G	-li-	4B	-li-	4d	-li-	4.g	-li-	4b	-li-
4E	-ce	4G	-ce	8e	-ce	.	.	4cc	-ce
.	.	.	.	4c	pe-	8g	-ce	.	.
2G	pe-	2d	pe-	.	.	2g	pe-	2dd	pe-
.	.	.	.	16BL	.	.	.	.	.
.	.	.	.	16AJ	.	.	.	.	.
.	.	.	.	4B	.	.	.	.	.
=17	=17	=17	=17	=17	=17	=17	=17	=17	=17
1C	-gno;	1e	-gno;	1c	-gno;	1g	-gno;	1cc	-gno;
1r	.	1r	.	4g	Ac-	4b	Ac-	4dd	Ac-
.	.	.	.	2g	-ciò	2b	-ciò	2dd	-ciò
.	.	.	.	4e	n'a-	4g	n'a-	4cc#X	n'a-
=18	=18	=18	=18	=18	=18	=18	=18	=18	=18
0r	.	1r	.	2d	-sciu-	2f#X	-sciu-	2a	-sciu-
.	.	.	.	2B	-ghi i	2g#X	-ghi i	2b	-ghi i
.	.	4f	E	1A	lu-	[1a	lu-	1cc	lu-
.	.	4f	ne	.	.	.	.	.	.
.	.	[2e	pian-	.	.	.	.	.	.
=19	=19	=19	=19	=19	=19	=19	=19	=19	=19
2.E	E	2e]	.	1B	-mi,	2a]	.	1b	-mi,
.	.	4d	-ga	.	.	2g#X	-mi,	.	.
4E	ne	4d	lon-	.	.	.	.	.	.
2F	pian-	1c	-ta-	2r	.	1r	.	1r	.
4F#X	-ga	.	.	4a	E	.	.	.	.
4F#X	lon-	.	.	4a	ne	.	.	.	.
=20	=20	=20	=20	=20	=20	=20	=20	=20	=20
0G	-ta-	2B	-no,	2g	pian-	4b	E	4ee	E
.	.	.	.	.	.	4b	ne	4ee	ne
.	.	2r	.	4f	-ga	2a	pian-	2dd	pian-
.	.	.	.	4f	lon-	.	.	.	.
.	.	2r	.	2e	-ta-	4g	-ga	4cc	-ga
.	.	.	.	.	.	4g	lon-	4b	lon-
.	.	4.B	<e	2d	-no	[2f	-ta-	2b	-ta-
.	.	8B	ne	.	.	.	.	.	.
=21	=21	=21	=21	=21	=21	=21	=21	=21	=21
1A	-no	2c	pian-	2r	.	2f]	.	2a	-no
.	.	4c#X	-ga	2A	e	2e	-no	4r	.
.	.	4c#X	lon-	.	.	.	.	4ee	e
2r	.	2d	-ta-	2F	mi	2r	.	4a	mi
.	.	.	.	.	.	.	.	4b	con-
2E	e	2e	-no>	2G	con-	4r	.	[2cc	-su-
.	.	.	.	.	.	4g	e	.	.
=22	=22	=22	=22	=22	=22	=22	=22	=22	=22
2C	mi	1r	.	1.A	-su-	2e	mi	2cc]	.
2D	con-	.	.	.	.	2f#X	con-	4a	-mi,
.	.	.	.	.	.	.	.	4dd	<e
1E	-su-	2r	.	.	.	2g	-su-	2b	mi
.	.	4r	.	2G	-mi,	2e	-mi,	2cc#X	con-
.	.	4e	e	.	.	.	.	.	.
=23	=23	=23	=23	=23	=23	=23	=23	=23	=23
2D	-mi,	2A	mi	2r	.	4r	.	2dd	-su-
.	.	.	.	.	.	4f	<e	.	.
4r	.	2B	con-	2G	<e	4d	mi	2g	-mi,>
4B	e	.	.	.	.	4e	con-	.	.
2F#X	mi	[1d	-su-	[1D	mi	2A	-su-	4r	.
.	.	.	.	.	.	.	.	4dd	e
2G	con-	.	.	.	.	4B	-mi,>	4b	mi
.	.	.	.	.	.	4g	e	4cc#X	con-
=24	=24	=24	=24	=24	=24	=24	=24	=24	=24
0A	-su-	0d]	.	2D]	.	2f#X	mi	0dd	-su-
.	.	.	.	2E	con-	2g	con-	.	.
.	.	.	.	1F	-su-	1a	-su-	.	.
=25	=25	=25	=25	=25	=25	=25	=25	=25	=25
0AAl	-mi.	0el	-mi.	0El	-mi.>	0al	-mi.	0cc#Xl	-mi.
==	==	==	==	==	==	==	==	==	==
*-	*-	*-	*-	*-	*-	*-	*-	*-	*-
!!!system-decoration: [*]
!!!RDF**kern: i = editorial accidental
!!!RDF**kern: l = terminal long
!!!ENC: Emiliano Ricciardi
!!!END: 2017/11
!!!EED: Deutsch, Catherine
!!!EEV: 2018/07/09
!!!YEC: Copyright 2018 Emiliano Ricciardi, All Rights Reserved
!!!ONB: Translated from MusicXML on 2018/07/09 and edited by Craig Stuart Sapp
!!@@BEGIN:	VERSEDATA
!!@SOLERTI:	325
!!@CATALOGNUM:	Trm0325
!!@LAST_MODIFIED: 2020/07/12
!!@TITLE:		O dolci lagrimette
!!@GENRE:		madrigale
!!@MANUSRC:	E<sub>1</sub>, F<sub>2</sub>
!!@PRINTSRC:	27, 48, 70, 141, 166, 169
!!@@BEGIN:	VERSES
!!@ABOUTIT:
!!@ABOUTEN:
!!@EDITOR:	Solerti, Angelo
!!@EDITION_TITLE: Le Rime di Torquato Tasso
!!@EDITION_LOC:	Bologna
!!@EDITION_PUB:	Romagnoli-Dall’Acqua
!!@EDITION_DATE:  1898-1902
!!@EDITION_VOL:	2
!!@EDITION_PAGE:  377
!!@TRANSLATOR:	Maria Pastore Passaro; adapted by Emiliano Ricciardi and Amyrose McCue Gill
!!@VERSE:
!!	O dolci lagrimette,
!!	Che già la donna mia da' suoi begli occhi,
!!	Quasi nembo che fiocchi,
!!	Sparse in quest'odoroso e bianco lino!
!!	Misero peregrino,
!!	Questo sol meco io porto e solo io tegno,
!!	Caro mio sì, ma non felice pegno;
!!	Perché n'asciughi i lumi,
!!	E ne pianga lontano e mi consumi.
!!@TVERSE:
!!	O sweet little tears
!!	That once my lady, from her beautiful eyes,
!!	Like a cloud shedding snow,
!!	Scattered into this white and scented linen!
!!	Wretched wanderer,
!!	This alone I bear with me and alone I hold,
!!	Dear to me, yes, but no happy token,
!!	For upon it I dry my eyes,
!!	And into it weep, far away, and I exhaust myself.
!!@@END:		VERSES
!!@OTHER_CRIT_ED:   None
!!@ATTRIBUTION_ABOUT:	Secure
!!		<br>
!!		Among other sources, this poem appears in the authoritative manuscript Estense It. 385, Biblioteca Estense Universitaria, Modena, Italy (see Literary Sources).
!!@DATING:	Mid-1580s or earlier
!!@DEDICATEE:
!!@COMMENTARY:
!!@@END:		VERSEDATA
!!@@BEGIN:	SETTING
!!@CATALOGNUM:	Trm0325c
!!@RIMETITLE:	O dolci lagrimette
!!@SOLERTI:	325
!!@COMPOSER:	Salzilli, Crescenzio
!!@PRINCEPSTITLE:	Il secondo libro de madrigali a cinque voci
!!@PRINCEPSLOC:	Napoli
!!@NORMLOC:	Naples
!!@NORMPUB:	Giovanni Giacomo Carlino
!!@NORMPUBSHORT:	Carlino
!!@PRINCEPSPUB:	Carlino
!!@PRINCEPSYEAR:	1611
!!@PRINCEPSRISM:	1611-17
!!@REPRINTS:	
!!@OVOICES:	5
!!@EXTANTVOICES:	5
!!@PARTBOOKS:	
!!@EXTPARTBOOKS:	
!!@OCLEFS:	G2,C2,C3,C3,F3
!!@OMENSURATION:	C
!!@OKEYSIG:	-
!!@FINAL:	A
!!@TIMPEDITOR:	Deutsch, Catherine
!!@NOTE:		
!!@@END:		SETTING
